common/assets/images/wallets/trezor.svg

<?xml version="1.0" encoding="UTF-8"?>
<svg width="156px" height="258px" viewBox="0 0 156 258" version="1.1" xmlns="http://www.w3.org/2000/svg" xmlns:xlink="http://www.w3.org/1999/xlink">
    <!-- Generator: Sketch 48.1 (47250) - http://www.bohemiancoding.com/sketch -->
    <title>trezor</title>
    <desc>Created with Sketch.</desc>
    <defs></defs>
    <g id="Page-1" stroke="none" stroke-width="1" fill="none" fill-rule="evenodd">
        <g id="trezor" fill="#000000" fill-rule="nonzero">
            <g id="path7">
                <path d="M78.1255028,0 C47.0321802,0 21.8688656,28.6428571 21.8688656,64.0357143 L21.8688656,88.0357143 C10.9501207,90.2857143 0,93.2857143 0,97.1785714 L0,222.428571 C0,222.428571 0,225.892857 3.41995173,227.535714 C15.8133548,233.25 64.5711987,252.892857 75.772325,257.392857 C77.2156074,258 77.6234916,258 78,258 C78.533387,258 78.7843926,258 80.227675,257.392857 C91.4288013,252.892857 140.312148,233.25 152.705551,227.535714 C155.874497,226.035714 156,222.571429 156,222.571429 L156,97.1785714 C156,93.2857143 145.206758,90.1428571 134.256637,88.0357143 L134.256637,64.0357143 C134.413516,28.6428571 109.093323,0 78.1255028,0 Z M78.1255028,30.6071429 C96.4489139,30.6071429 107.524537,43.2142857 107.524537,64.0714286 L107.524537,84.9285714 C86.9734513,83.2857143 69.4344328,83.2857143 48.7578439,84.9285714 L48.7578439,64.0714286 C48.7578439,43.1785714 59.8334674,30.6071429 78.1255028,30.6071429 Z M78,115.642857 C103.571199,115.642857 125.03218,117.892857 125.03218,121.928571 L125.03218,200.071429 C125.03218,201.285714 124.906677,201.428571 123.965406,201.857143 C123.055511,202.321429 80.3531778,219.857143 80.3531778,219.857143 C80.3531778,219.857143 78.6275141,220.464286 78.1255028,220.464286 C77.5921158,220.464286 75.8978278,219.714286 75.8978278,219.714286 C75.8978278,219.714286 33.1954948,202.178571 32.2855994,201.714286 C31.3757039,201.25 31.2188254,201.107143 31.2188254,199.928571 L31.2188254,121.785714 C30.9678198,117.75 52.4288013,115.642857 78,115.642857 Z"></path>
            </g>
        </g>
    </g>
</svg>

<svg xmlns="http://www.w3.org/2000/svg" width="156" height="258"><path d="M78.126 0C47.032 0 21.869 28.643 21.869 64.036v24C10.95 90.286 0 93.286 0 97.179v125.25s0 3.464 3.42 5.107c12.393 5.714 61.151 25.357 72.352 29.857C77.216 258 77.623 258 78 258c.533 0 .784 0 2.228-.607 11.2-4.5 60.084-24.143 72.478-29.857 3.168-1.5 3.294-4.965 3.294-4.965V97.18c0-3.893-10.793-7.036-21.743-9.143v-24C134.414 28.643 109.093 0 78.126 0zm0 30.607c18.323 0 29.399 12.607 29.399 33.464V84.93c-20.552-1.643-38.09-1.643-58.767 0V64.07c0-20.892 11.075-33.464 29.368-33.464zM78 115.643c25.571 0 47.032 2.25 47.032 6.286v78.142c0 1.215-.125 1.358-1.067 1.786-.91.464-43.612 18-43.612 18s-1.725.607-2.227.607c-.534 0-2.228-.75-2.228-.75s-42.703-17.535-43.612-18c-.91-.464-1.067-.607-1.067-1.785v-78.143c-.251-4.036 21.21-6.143 46.781-6.143z"/></svg>
